X: 1788
T: Paddy Godden's Mazurka
B: australian traditional tunes wiki
M:3/4
L:1/8
R: Mazurka
Q: 1/4=100
K:G
V:1 
D>G|"G"B2B2c>B|"D"A2A2D>F|A2A2B>A|"G"G4D>G|
B2B2c>B|"D"A2A2D>F|A2A2B>A|1"G"G4:|2"G"G4(3dgd||
|:"C"e2e2f>e|"G"d>gd2D>G|"D"A2A2d>c|"G"B4d>d|
"C"e2e2f>e|"G"d>gd2D>G|"D"A2A2B>A|1"G"G4(3dgd:|2"G"G6||
% abcbook-tune_id 6342d53a4b65e8f7996fcf1f


% abcbook-boost 0
% abcbook-tablature 
% abcbook-transpose 
% abcbook-lastupdated 1665324383925
% abcbook-soundfonts 
% abcbook-repeats 1
% NFF Book 2007

